remix/Logos/firefox-fill.svg

<svg viewBox="0 0 24 24" fill="currentColor" xmlns="http://www.w3.org/2000/svg"><path d="M12.001 2C17.5238 2 22.001 6.47715 22.001 12C22.001 17.5228 17.5238 22 12.001 22C6.47813 22 2.00098 17.5228 2.00098 12C2.00098 10.5365 2.31538 9.14635 2.88033 7.89353C3.34744 6.95503 4.11409 6.01955 4.73082 5.7004C4.07759 6.98266 3.75823 8.24073 3.69049 9.08266C4.14533 7.58266 5.00622 6.32621 6.21106 5.43911C8.27719 3.92016 11.059 3.85202 12.1671 4.81976C10.1107 5.52581 7.87073 8.36653 8.36428 11.6952C8.44419 12.2447 8.60906 12.7785 8.85299 13.2774C8.46912 12.2661 8.43525 10.8435 9.05461 9.91935C9.74654 8.88911 10.7332 8.67137 11.2607 8.78266C11.0526 8.73911 10.5929 9.61936 10.5252 9.77419C10.3523 10.1679 10.2664 10.5943 10.2736 11.0242C10.2888 11.9223 10.6594 12.7778 11.3042 13.4032C13.2256 15.2754 16.3268 14.5387 17.7155 12.4016C18.6687 10.9306 18.7848 8.43427 17.5607 6.4504C17.2554 5.96696 16.8913 5.52325 16.4768 5.12944C14.6262 3.36387 11.9979 2.56054 9.49503 2.92549C8.38907 3.10214 7.44765 3.42052 6.67077 3.88065C7.75554 2.79776 9.9123 2 12.001 2Z"/></svg>

<svg viewBox="0 0 24 24" xmlns="http://www.w3.org/2000/svg"><path fill="none" d="M0 0h24v24H0Z"/><path d="M12 2c5.523 0 10 4.477 10 10s-4.477 10-10 10C6.477 22 2 17.523 2 12c0-1.47.31-2.86.88-4.106 .46-.94 1.23-1.88 1.85-2.194 -.66 1.28-.98 2.54-1.04 3.383 .45-1.5 1.31-2.76 2.52-3.644 2.06-1.52 4.84-1.59 5.95-.62 -2.06.7-4.296 3.54-3.81 6.876 .08.55.24 1.08.48 1.58 -.39-1.01-.42-2.433.2-3.36 .69-1.03 1.67-1.25 2.2-1.14 -.21-.05-.67.83-.74.99 -.18.39-.26.82-.26 1.25h0c.01.89.38 1.75 1.03 2.38 1.92 1.87 5.023 1.13 6.41-1.01 .95-1.471 1.06-3.968-.16-5.952h0c-.31-.49-.67-.93-1.09-1.32C14.57 3.34 11.94 2.54 9.43 2.9c-1.11.17-2.05.496-2.824.956 1.085-1.09 3.24-1.89 5.33-1.89Z"/></svg>
